assets/icons/qvision/dry.svg

<svg xmlns="http://www.w3.org/2000/svg" enable-background="new 0 0 24 24" height="24" viewBox="0 0 24 24" width="24"><g><rect fill="none" height="24" width="24"/><path d="M15.65,4.86l-0.07-0.07c-0.57-0.62-0.82-1.41-0.67-2.2L15,2h-1.89l-0.06,0.43c-0.2,1.36,0.27,2.71,1.3,3.72l0.07,0.06 c0.57,0.62,0.82,1.41,0.67,2.2L14.98,9h1.91l0.06-0.43C17.16,7.21,16.68,5.86,15.65,4.86z M19.65,4.86l-0.07-0.07 c-0.57-0.62-0.82-1.41-0.67-2.2L19,2h-1.89l-0.06,0.43c-0.2,1.36,0.27,2.71,1.3,3.72l0.07,0.06c0.57,0.62,0.82,1.41,0.67,2.2 L18.98,9h1.91l0.06-0.43C21.16,7.21,20.68,5.86,19.65,4.86z M9.12,5l-7.18,6.79C1.34,12.35,1,13.14,1,13.97V20c0,1.66,1.34,3,3,3 h6.25H12h5.75c0.69,0,1.25-0.56,1.25-1.25s-0.56-1.25-1.25-1.25H12v-1h7.75c0.69,0,1.25-0.56,1.25-1.25S20.44,17,19.75,17H12v-1 h8.75c0.69,0,1.25-0.56,1.25-1.25s-0.56-1.25-1.25-1.25H12v-1h6.75c0.69,0,1.25-0.56,1.25-1.25S19.44,10,18.75,10H8.86 c0.64-1.11,1.48-2.58,1.49-2.61c0.09-0.16,0.14-0.33,0.14-0.53c0-0.26-0.09-0.5-0.26-0.7C10.22,6.12,9.12,5,9.12,5L9.12,5z"/></g></svg>

<svg width="24" height="24" viewBox="0 0 24 24" fill="none" xmlns="http://www.w3.org/2000/svg">
<g clip-path="url(#clip0_147_6161)">
<path d="M15.65 4.86L15.58 4.79C15.01 4.17 14.76 3.38 14.91 2.59L15 2H13.11L13.05 2.43C12.85 3.79 13.32 5.14 14.35 6.15L14.42 6.21C14.99 6.83 15.24 7.62 15.09 8.41L14.98 9H16.89L16.95 8.57C17.16 7.21 16.68 5.86 15.65 4.86ZM19.65 4.86L19.58 4.79C19.01 4.17 18.76 3.38 18.91 2.59L19 2H17.11L17.05 2.43C16.85 3.79 17.32 5.14 18.35 6.15L18.42 6.21C18.99 6.83 19.24 7.62 19.09 8.41L18.98 9H20.89L20.95 8.57C21.16 7.21 20.68 5.86 19.65 4.86ZM9.12 5L1.94 11.79C1.34 12.35 1 13.14 1 13.97V20C1 21.66 2.34 23 4 23H10.25H12H17.75C18.44 23 19 22.44 19 21.75C19 21.06 18.44 20.5 17.75 20.5H12V19.5H19.75C20.44 19.5 21 18.94 21 18.25C21 17.56 20.44 17 19.75 17H12V16H20.75C21.44 16 22 15.44 22 14.75C22 14.06 21.44 13.5 20.75 13.5H12V12.5H18.75C19.44 12.5 20 11.94 20 11.25C20 10.56 19.44 10 18.75 10H8.86C9.5 8.89 10.34 7.42 10.35 7.39C10.44 7.23 10.49 7.06 10.49 6.86C10.49 6.6 10.4 6.36 10.23 6.16C10.22 6.12 9.12 5 9.12 5Z" fill="#323232"/>
</g>
<defs>
<clipPath id="clip0_147_6161">
<rect width="24" height="24" fill="white"/>
</clipPath>
</defs>
</svg>
